svg/white/rise.svg

<svg height="32" viewBox="0 0 32 32" width="32" xmlns="http://www.w3.org/2000/svg"><path d="m16 32c-8.836556 0-16-7.163444-16-16s7.163444-16 16-16 16 7.163444 16 16-7.163444 16-16 16zm-3.3947601-22.84494296c.8574824 0 1.5526092-.70628358 1.5526092-1.57752852s-.6951268-1.57752852-1.5526092-1.57752852c-.8574823 0-1.5526091.70628358-1.5526091 1.57752852s.6951268 1.57752852 1.5526091 1.57752852zm6.8420064 16.84479606c.8574823 0 1.5526091-.7062836 1.5526091-1.5775285 0-.871245-.6951268-1.5775285-1.5526091-1.5775285-.8574824 0-1.5526091.7062835-1.5526091 1.5775285 0 .8712449.6951267 1.5775285 1.5526091 1.5775285zm-6.2052365-11.7885842 7.1577912-5.56145648c.6118786-.47541704.7285905-1.36480548.2606833-1.98650469-.4679071-.6216992-1.3432463-.74028432-1.9551249-.26486729l-7.1577912 5.56145646c-.6118786.4754171-.7285905 1.3648055-.2606833 1.9865047.4679071.6216992 1.3432463.7402843 1.9551249.2648673zm.0526308 5.6684076 7.1577912-5.5614565c.6118786-.4754171.7285905-1.3648055.2606833-1.9865047-.4679071-.6216992-1.3432463-.7402843-1.9551249-.2648673l-7.1577912 5.5614565c-.6118786.475417-.7285905 1.3648055-.2606833 1.9865047.4679071.6216992 1.3432463.7402843 1.9551249.2648673zm0 5.8288341 7.1577912-5.5614564c.6118786-.4754171.7285905-1.3648055.2606833-1.9865047-.4679071-.6216992-1.3432463-.7402843-1.9551249-.2648673l-7.1577912 5.5614565c-.6118786.475417-.7285905 1.3648054-.2606833 1.9865047.4679071.6216992 1.3432463.7402843 1.9551249.2648672z" fill="#fff" fill-rule="evenodd"/></svg>

<svg height="32" width="32" xmlns="http://www.w3.org/2000/svg"><path d="M16 32C7.163 32 0 24.837 0 16S7.163 0 16 0s16 7.163 16 16-7.163 16-16 16zM12.605 9.155c.858 0 1.553-.706 1.553-1.577S13.463 6 12.605 6c-.857 0-1.552.706-1.552 1.578s.695 1.577 1.552 1.577zM19.447 26c.858 0 1.553-.706 1.553-1.578 0-.87-.695-1.577-1.553-1.577-.857 0-1.552.706-1.552 1.577 0 .872.695 1.578 1.552 1.578zM13.242 14.21L20.4 8.65a1.432 1.432 0 0 0 .26-1.987 1.38 1.38 0 0 0-1.955-.265l-7.157 5.562a1.432 1.432 0 0 0-.261 1.986 1.38 1.38 0 0 0 1.955.265zm.053 5.669l7.157-5.562a1.432 1.432 0 0 0 .261-1.986 1.38 1.38 0 0 0-1.955-.265L11.6 17.628a1.432 1.432 0 0 0-.26 1.987 1.38 1.38 0 0 0 1.955.265zm0 5.829l7.157-5.562a1.432 1.432 0 0 0 .261-1.986 1.38 1.38 0 0 0-1.955-.265L11.6 23.457a1.432 1.432 0 0 0-.26 1.987 1.38 1.38 0 0 0 1.955.265z" fill="#fff" fill-rule="evenodd"/></svg>
